www/assets/icons/find_in_page.svg

<svg xmlns="http://www.w3.org/2000/svg" width="24" height="24" viewBox="0 0 24 24" fill='currentColor'><path d="M20 19.59V8l-6-6H6c-1.1 0-1.99.9-1.99 2L4 20c0 1.1.89 2 1.99 2H18c.45 0 .85-.15 1.19-.4l-4.43-4.43c-.8.52-1.74.83-2.76.83-2.76 0-5-2.24-5-5s2.24-5 5-5 5 2.24 5 5c0 1.02-.31 1.96-.83 2.75zM9 13c0 1.66 1.34 3 3 3s3-1.34 3-3-1.34-3-3-3-3 1.34-3 3"/></svg>

<svg width="24" height="24" viewBox="0 0 24 24" xmlns="http://www.w3.org/2000/svg" fill='currentColor'><path d="M20 19.59V8L14 2H6C4.9 2 4.01 2.9 4.01 4L4 20C4 21.1 4.89 22 5.99 22H18C18.45 22 18.85 21.85 19.19 21.6L14.76 17.17C13.96 17.69 13.02 18 12 18C9.24 18 7 15.76 7 13C7 10.24 9.24 8 12 8C14.76 8 17 10.24 17 13C17 14.02 16.69 14.96 16.17 15.75L20 19.59ZM9 13C9 14.66 10.34 16 12 16C13.66 16 15 14.66 15 13C15 11.34 13.66 10 12 10C10.34 10 9 11.34 9 13Z"/></svg>
